FINK
CUT[ES LEBE HOCH DER KRIEGERSTAND]
REG[Europa, Mitteleuropa, Deutschland]
KEY[F0652  08  D 4/4]
MEL[-1-1-1  -5_.-5-5_-6-7  1_0_.
    -3-1-3  -5_.-5-5_1_  -7__0_
    -7-6  -5_-2-2-7_-6-6  -5_-2_0_
    -7-6  -5_-2-2-7_.-6  -5__0_
    -5_  1_111231  -5__-3_
    -6-5  -5-4-4_-4-6-5-4  -3__0_
    -5_  1_111231  -5__-3_
    -6-5  -5-4-4_-4-6-5-4  -3__0
    -5-6-7  1__0-3-4-5  -6_0_.
    222  3_.32_.2  1__0 //] >>
FCT[Soldaten - Lied, national]
